X: 21082
T: TH' HEARTY LASSES O' SHIELDS
C: By R. Stephenson
R: hornpipe
B: K\"ohler's Violin Repository, v.2, 1885 p.108 #2
F: http://www.archive.org/details/klersviolinrepos02rugg
Z: 2012 John Chambers <jc:trillian.mit.edu>
M: C|
L: 1/8
K: A
(ucd) |\
e2 {f}e>^d (e>a)g>f | (e>d)c>B (A>G)F>E | (A>^G)B>A c>Bd>c | f>ed>c B2 c>d |
e2 {f}e>^d (e>a)g>f | (e>d)c>B (A>G)F>E | (A>G)B>A F>dB>G | B2A2 A2 :|
|: u(B>A) |\
.G.A.B.c .d.e.f.g | (a>g)b>a (g>f)e>d | (c>d)^d>e (f>e)d>c | d2B2 [B2G2](B>A) |
.G.A.B.c .d.e.f.g | (a>g)b>a (g>f)e>d | (c>e)d>f | e>dc>B | A2{g}a2 A2 :|

%%sep 2 1 500

